<?xml version="1.0" encoding="UTF-8"?>
<map version="1.10" tiledversion="1.11.2" orientation="orthogonal" renderorder="right-down" width="15" height="12" tilewidth="16" tileheight="16" infinite="0" nextlayerid="4" nextobjectid="1">
 <tileset firstgid="1" source="../Tiles.tsx"/>
 <tileset firstgid="573" source="../Buildings.tsx"/>
 <layer id="1" name="Bottom" width="15" height="12">
  <data encoding="csv">
115,115,114,113,114,114,114,115,115,114,114,115,113,115,113,
115,111,114,114,115,114,111,112,111,113,112,112,114,112,112,
113,114,112,112,114,111,114,114,113,111,111,112,115,111,115,
112,111,114,115,115,111,111,112,112,112,114,111,111,111,113,
113,112,112,114,113,111,113,111,113,115,115,115,113,111,113,
115,115,111,115,112,113,111,113,115,111,112,112,113,112,112,
113,113,111,115,113,115,114,114,113,115,114,112,113,111,111,
114,112,113,114,111,114,114,115,112,111,115,112,112,113,114,
112,112,111,115,113,115,113,111,112,115,112,113,113,115,112,
113,114,115,111,114,114,111,112,114,113,111,113,114,112,112,
114,112,113,114,112,115,114,113,115,113,113,112,114,112,115,
112,114,115,112,112,115,111,115,112,111,112,111,112,111,115
</data>
 </layer>
 <layer id="2" name="Collision" width="15" height="12">
  <data encoding="csv">
0,0,0,0,0,0,0,0,0,0,0,0,0,0,0,
0,683,0,0,686,0,0,0,0,0,683,0,0,686,0,
0,0,704,705,0,0,0,0,0,0,0,704,705,0,0,
0,0,0,0,0,0,0,0,0,0,0,0,0,0,0,
0,0,0,0,0,0,0,0,0,0,0,0,0,0,0,
0,0,683,0,0,686,0,0,0,683,0,0,686,0,0,
0,0,0,704,705,0,0,0,0,0,704,705,0,0,0,
0,0,0,0,0,0,0,0,0,0,0,0,0,0,0,
0,0,0,0,0,0,0,0,0,0,0,0,0,0,0,
0,0,0,0,0,0,0,0,0,0,0,0,0,0,0,
0,0,0,0,0,0,0,0,0,0,0,0,0,0,0,
710,711,712,710,711,712,0,0,0,710,711,712,710,711,712
</data>
 </layer>
 <layer id="3" name="Top" width="15" height="12">
  <data encoding="csv">
0,663,664,665,666,0,0,0,0,0,663,664,665,666,0,
0,0,684,685,0,0,0,0,0,0,0,684,685,0,0,
0,0,0,0,0,0,0,0,0,0,0,0,0,0,0,
0,0,0,0,0,0,0,0,0,0,0,0,0,0,0,
0,0,663,664,665,666,0,0,0,663,664,665,666,0,0,
0,0,0,684,685,0,0,0,0,0,684,685,0,0,0,
0,0,0,0,0,0,0,0,0,0,0,0,0,0,0,
0,0,0,0,0,0,0,0,0,0,0,0,0,0,0,
0,0,0,0,0,0,0,0,0,0,0,0,0,0,0,
670,671,672,670,671,672,0,0,0,670,671,672,670,671,672,
690,691,692,690,691,692,0,0,0,690,691,692,690,691,692,
0,0,0,0,0,0,0,0,0,0,0,0,0,0,0
</data>
 </layer>
</map>
