<?xml version="1.0" encoding="UTF-8"?>
<map version="1.10" tiledversion="1.11.2" orientation="orthogonal" renderorder="right-down" width="15" height="12" tilewidth="16" tileheight="16" infinite="0" nextlayerid="4" nextobjectid="1">
 <tileset firstgid="1" source="../Tiles.tsx"/>
 <tileset firstgid="573" source="../Buildings.tsx"/>
 <layer id="3" name="Bottom" width="15" height="12" locked="1">
  <data encoding="csv">
112,115,115,115,115,113,114,111,113,112,112,115,113,112,113,
113,112,112,114,115,112,115,114,113,113,113,111,111,111,115,
114,112,115,115,113,113,115,111,114,111,115,111,112,114,113,
115,114,111,112,115,112,115,114,113,114,115,115,112,115,112,
114,114,113,111,114,113,115,115,112,111,114,112,114,114,114,
112,111,112,114,114,114,111,115,114,111,112,115,112,113,112,
112,111,115,114,112,115,114,113,113,113,112,115,115,115,111,
114,112,113,112,114,115,111,111,113,114,112,115,115,112,111,
114,115,111,111,112,114,115,114,114,114,115,115,115,112,114,
111,111,111,112,112,111,111,114,113,115,115,113,111,114,111,
113,114,114,114,111,114,112,113,111,115,111,115,114,115,111,
113,113,115,115,113,111,111,111,114,113,114,113,114,113,112
</data>
 </layer>
 <layer id="2" name="Collision" width="15" height="12">
  <data encoding="csv">
589,590,591,0,0,583,584,585,586,587,588,579,580,581,582,
609,610,611,0,0,603,604,605,606,607,608,599,600,601,602,
629,630,631,632,762,623,650,625,626,627,628,619,620,621,622,
649,650,651,652,0,0,0,0,646,647,648,0,0,0,0,
0,0,0,0,0,0,0,0,0,0,0,0,0,0,0,
0,0,0,0,0,0,0,0,0,0,0,0,0,0,0,
0,0,810,797,798,789,0,0,0,0,799,795,796,800,0,
0,0,0,0,0,0,0,0,0,0,0,0,0,0,0,
0,0,0,0,0,0,0,0,0,0,0,0,0,0,0,
0,803,804,0,0,0,0,0,0,0,0,0,803,804,0,
0,0,0,0,0,0,0,0,0,0,0,0,0,0,0,
673,674,674,674,674,673,0,0,0,673,674,674,674,674,673
</data>
 </layer>
 <layer id="1" name="Top" width="15" height="12">
  <data encoding="csv">
0,0,0,0,0,0,0,0,0,0,0,0,0,0,0,
0,0,0,0,0,0,0,0,0,0,0,0,0,0,0,
0,0,0,0,0,0,0,0,0,0,0,0,0,0,0,
0,0,0,0,0,0,0,0,0,0,0,0,0,0,0,
0,0,0,0,0,0,0,0,0,0,0,0,0,0,0,
0,0,0,777,778,0,0,0,0,0,0,775,776,0,0,
0,0,0,0,0,0,0,0,0,0,0,0,0,0,0,
0,0,0,0,0,0,0,0,0,0,0,0,0,0,0,
0,783,784,0,0,0,0,0,0,0,0,0,783,784,0,
0,0,0,0,0,0,0,0,0,0,0,0,0,0,0,
0,0,0,0,0,0,0,0,0,0,0,0,0,0,0,
0,0,0,0,0,0,0,0,0,0,0,0,0,0,0
</data>
 </layer>
</map>
