<?xml version="1.0" encoding="UTF-8"?>
<map version="1.10" tiledversion="1.11.2" orientation="orthogonal" renderorder="right-down" width="15" height="12" tilewidth="16" tileheight="16" infinite="0" nextlayerid="4" nextobjectid="1">
 <editorsettings>
  <export target="room3.json" format="json"/>
 </editorsettings>
 <tileset firstgid="1" source="../Tiles.tsx"/>
 <tileset firstgid="573" source="../Buildings.tsx"/>
 <layer id="1" name="Bottom" width="15" height="12">
  <data encoding="csv">
112,114,114,115,113,115,114,113,114,112,111,111,113,115,114,
112,114,115,114,115,112,114,114,114,112,113,115,115,111,115,
111,111,114,113,115,111,111,113,113,114,113,113,114,112,113,
111,113,113,114,115,115,113,115,115,111,114,113,115,113,115,
114,114,111,114,115,111,113,114,112,113,112,113,112,115,113,
111,113,112,115,114,115,114,111,114,115,111,111,112,114,114,
113,114,114,115,114,113,112,112,112,114,112,115,111,111,111,
115,112,115,115,114,114,115,112,114,114,112,114,114,115,115,
111,113,113,112,112,115,111,113,112,112,111,112,115,115,112,
112,115,115,112,114,114,114,112,114,115,113,111,115,114,112,
115,113,115,111,114,111,115,113,115,111,111,113,111,111,112,
111,114,115,112,114,113,114,112,111,115,114,112,111,115,114
</data>
 </layer>
 <layer id="2" name="Collision" width="15" height="12">
  <data encoding="csv">
0,0,0,0,0,0,0,0,0,0,0,0,0,0,0,
0,0,0,0,0,0,0,0,0,0,0,0,0,0,0,
613,614,615,0,0,0,0,0,0,0,0,715,716,717,718,
0,0,0,0,0,0,0,805,806,0,0,735,736,737,738,
0,0,0,0,0,0,0,0,0,0,0,755,756,757,0,
0,0,0,0,0,0,0,0,0,0,0,0,0,0,0,
0,0,0,0,0,0,0,0,0,0,0,0,0,0,0,
0,0,0,0,0,805,806,0,0,0,0,0,0,0,0,
656,657,658,0,0,0,0,0,0,0,0,0,0,0,0,
0,0,0,0,0,0,0,0,0,0,0,656,657,658,0,
0,0,0,0,0,0,0,0,0,0,0,0,0,0,0,
673,674,674,674,674,673,0,0,0,673,674,674,674,674,673
</data>
 </layer>
 <layer id="3" name="Top" width="15" height="12">
  <data encoding="csv">
573,574,575,0,0,0,0,0,0,0,0,0,0,677,678,
593,594,595,0,0,0,0,0,0,0,0,695,696,697,698,
0,0,0,0,0,0,0,785,786,0,0,0,0,0,0,
0,0,0,0,0,0,0,0,0,0,0,0,0,0,0,
576,577,578,0,0,0,0,0,0,0,0,0,0,0,0,
596,597,598,0,0,0,0,0,0,0,0,576,577,578,0,
616,617,618,0,0,785,786,0,0,0,0,596,597,598,0,
636,637,638,0,0,0,0,0,0,0,0,616,617,618,0,
0,0,0,0,0,0,0,0,0,0,0,636,637,638,0,
0,0,0,0,0,0,0,0,0,0,0,0,0,0,0,
0,0,0,0,0,0,0,0,0,0,0,0,0,0,0,
0,0,0,0,0,0,0,0,0,0,0,0,0,0,0
</data>
 </layer>
</map>
