<?xml version="1.0" encoding="UTF-8"?>
<map version="1.10" tiledversion="1.11.2" orientation="orthogonal" renderorder="right-down" width="15" height="12" tilewidth="16" tileheight="16" infinite="0" nextlayerid="4" nextobjectid="1">
 <tileset firstgid="1" source="../Tiles.tsx"/>
 <tileset firstgid="573" source="../Buildings.tsx"/>
 <layer id="1" name="Bottom" width="15" height="12" locked="1">
  <data encoding="csv">
114,112,113,113,114,115,111,112,115,112,114,112,114,115,114,
111,111,112,113,111,1,2,3,112,112,112,113,115,115,114,
113,111,111,111,113,23,24,25,112,111,111,115,115,113,115,
111,113,114,111,114,45,46,47,114,113,1,2,3,111,115,
112,112,113,111,111,115,115,114,115,111,23,24,25,113,112,
112,113,1,2,3,114,112,112,113,112,45,46,47,113,111,
113,115,23,24,25,113,115,115,113,115,114,111,112,111,114,
113,112,45,46,47,111,114,112,113,113,114,111,111,113,115,
114,115,112,111,112,114,114,1,2,3,113,112,111,111,115,
112,112,115,114,115,115,112,23,24,25,115,114,113,115,111,
111,112,114,114,112,111,112,45,46,47,111,113,114,112,114,
112,113,113,114,115,113,112,111,112,111,112,113,111,114,114
</data>
 </layer>
 <layer id="2" name="Collision" width="15" height="12">
  <data encoding="csv">
635,753,754,0,0,0,0,0,0,0,0,0,753,754,635,
655,773,774,0,0,0,0,0,0,0,0,0,773,774,655,
655,793,794,809,0,0,0,0,0,0,0,812,793,794,655,
655,810,812,0,0,0,0,0,0,0,0,0,811,810,655,
655,0,0,0,0,0,0,0,0,0,0,0,0,0,655,
655,0,0,0,0,0,0,0,0,0,0,0,0,0,655,
655,0,0,0,0,0,0,0,0,0,0,0,0,0,655,
655,0,0,0,0,0,0,0,0,0,0,0,0,0,655,
655,0,0,0,0,0,0,0,0,0,0,0,0,0,655,
655,0,0,0,0,0,0,0,0,0,0,0,0,0,655,
655,733,734,789,0,0,0,0,0,0,0,789,733,734,655,
673,674,674,674,674,674,674,674,674,674,674,674,674,674,673
</data>
 </layer>
 <layer id="3" name="Top" width="15" height="12">
  <data encoding="csv">
0,0,0,0,0,0,0,0,0,0,0,0,0,0,0,
0,0,0,0,0,0,0,0,0,0,0,0,0,0,0,
0,0,0,0,0,0,0,0,0,0,0,0,0,0,0,
0,0,0,0,0,0,0,0,0,0,0,0,0,0,0,
0,0,0,0,0,0,0,0,0,0,0,0,0,0,0,
0,0,0,0,0,0,0,0,0,0,0,0,0,0,0,
0,0,0,0,0,0,0,0,0,0,0,0,0,0,0,
0,0,0,0,0,0,0,0,0,0,0,0,0,0,0,
0,693,694,0,0,0,0,0,0,0,0,0,693,694,0,
0,713,714,0,0,0,0,0,0,0,0,0,713,714,0,
0,0,0,0,0,0,0,0,0,0,0,0,0,0,0,
0,0,0,0,0,0,0,0,0,0,0,0,0,0,0
</data>
 </layer>
</map>
